assets/img/braze_icons/dotpoints-01.svg

<svg fill="none" height="24" viewBox="0 0 24 24" width="24" xmlns="http://www.w3.org/2000/svg"><g clip-rule="evenodd" fill="#801ed7" fill-rule="evenodd"><path d="m8 12c0-.5523.44772-1 1-1h12c.5523 0 1 .4477 1 1s-.4477 1-1 1h-12c-.55228 0-1-.4477-1-1z"/><path d="m8 6c0-.55228.44772-1 1-1h12c.5523 0 1 .44772 1 1 0 .55229-.4477 1-1 1h-12c-.55228 0-1-.44772-1-1z"/><path d="m8 18c0-.5523.44772-1 1-1h12c.5523 0 1 .4477 1 1s-.4477 1-1 1h-12c-.55228 0-1-.4477-1-1z"/><path d="m2 12c0-1.1046.89543-2 2-2s2 .8954 2 2-.89543 2-2 2-2-.8954-2-2z"/><path d="m2 6c0-1.10457.89543-2 2-2s2 .89543 2 2-.89543 2-2 2-2-.89543-2-2z"/><path d="m2 18c0-1.1046.89543-2 2-2s2 .8954 2 2-.89543 2-2 2-2-.8954-2-2z"/></g></svg>

<svg width="24" height="24" viewBox="0 0 24 24" fill="none" xmlns="http://www.w3.org/2000/svg">
<path fill-rule="evenodd" clip-rule="evenodd" d="M8 12C8 11.4477 8.44772 11 9 11L21 11C21.5523 11 22 11.4477 22 12C22 12.5523 21.5523 13 21 13L9 13C8.44772 13 8 12.5523 8 12Z" fill="#801ED7"/>
<path fill-rule="evenodd" clip-rule="evenodd" d="M8 6C8 5.44772 8.44772 5 9 5L21 5C21.5523 5 22 5.44772 22 6C22 6.55229 21.5523 7 21 7L9 7C8.44772 7 8 6.55228 8 6Z" fill="#801ED7"/>
<path fill-rule="evenodd" clip-rule="evenodd" d="M8 18C8 17.4477 8.44772 17 9 17L21 17C21.5523 17 22 17.4477 22 18C22 18.5523 21.5523 19 21 19L9 19C8.44772 19 8 18.5523 8 18Z" fill="#801ED7"/>
<path fill-rule="evenodd" clip-rule="evenodd" d="M2 12C2 10.8954 2.89543 10 4 10C5.10457 10 6 10.8954 6 12C6 13.1046 5.10457 14 4 14C2.89543 14 2 13.1046 2 12Z" fill="#801ED7"/>
<path fill-rule="evenodd" clip-rule="evenodd" d="M2 6C2 4.89543 2.89543 4 4 4C5.10457 4 6 4.89543 6 6C6 7.10457 5.10457 8 4 8C2.89543 8 2 7.10457 2 6Z" fill="#801ED7"/>
<path fill-rule="evenodd" clip-rule="evenodd" d="M2 18C2 16.8954 2.89543 16 4 16C5.10457 16 6 16.8954 6 18C6 19.1046 5.10457 20 4 20C2.89543 20 2 19.1046 2 18Z" fill="#801ED7"/>
</svg>
